web/public/images/startup-logos/pullflow.svg

<svg width="232" height="59" viewBox="0 0 232 59" fill="none" xmlns="http://www.w3.org/2000/svg">
<path d="M65.4697 46.4946V14.1728H76.1363C78.3065 14.1728 80.2151 14.5191 81.862 15.2117C83.509 15.9044 84.7865 17.0202 85.6946 18.5594C86.6181 20.0985 87.0799 22.1301 87.0799 24.6543C87.0799 27.1323 86.6181 29.1486 85.6946 30.7031C84.7865 32.2422 83.509 33.3735 81.862 34.0969C80.2151 34.8203 78.3065 35.182 76.1363 35.182H70.0873V46.4946H65.4697ZM70.0873 31.2572H75.4898C77.8448 31.2572 79.6071 30.7262 80.7769 29.6642C81.9621 28.5868 82.5547 26.9322 82.5547 24.7005C82.5547 22.4534 81.9929 20.7911 80.8693 19.7137C79.7611 18.6363 77.9679 18.0976 75.4898 18.0976H70.0873V31.2572ZM98.5181 46.9563C96.748 46.9563 95.2396 46.6023 93.9929 45.8943C92.7462 45.1709 91.7919 44.0781 91.13 42.616C90.4836 41.1538 90.1603 39.2914 90.1603 37.0289V23.8694H94.3161V35.8746C94.3161 38.2756 94.724 40.1072 95.5398 41.3693C96.3709 42.6314 97.7177 43.2624 99.5801 43.2624C100.858 43.2624 102.043 42.9546 103.136 42.3389C104.228 41.7233 104.983 40.7382 105.398 39.3838L104.798 41.6463V23.8694H108.954V46.4946H105.26L104.429 42.0619L105.537 42.8007C104.783 44.2013 103.859 45.2479 102.766 45.9405C101.689 46.6177 100.273 46.9563 98.5181 46.9563ZM120.069 46.9563C118.607 46.9563 117.445 46.6947 116.583 46.1714C115.736 45.6327 115.128 44.9477 114.759 44.1166C114.39 43.2855 114.205 42.4159 114.205 41.5078V11.8641H118.361V39.1067C118.361 40.3996 118.445 41.3693 118.615 42.0157C118.784 42.6621 119.123 43.0931 119.631 43.3086C120.154 43.5241 120.947 43.6318 122.009 43.6318L121.408 46.9563H120.069ZM130.627 46.9563C129.164 46.9563 128.002 46.6947 127.14 46.1714C126.294 45.6327 125.686 44.9477 125.316 44.1166C124.947 43.2855 124.762 42.4159 124.762 41.5078V11.8641H128.918V39.1067C128.918 40.3996 129.003 41.3693 129.172 42.0157C129.341 42.6621 129.68 43.0931 130.188 43.3086C130.711 43.5241 131.504 43.6318 132.566 43.6318L131.966 46.9563H130.627ZM136.936 46.4946V27.1015H133.011L133.565 23.8694H136.936V18.5132C136.936 16.4969 137.475 14.8885 138.552 13.688C139.629 12.4721 141.215 11.8641 143.308 11.8641C144.078 11.8641 144.747 11.918 145.317 12.0257C145.902 12.1335 146.433 12.2797 146.91 12.4644L146.263 15.9736C145.894 15.8351 145.532 15.735 145.178 15.6735C144.824 15.5965 144.416 15.558 143.955 15.558C143.062 15.558 142.361 15.812 141.854 16.3199C141.346 16.8124 141.092 17.6359 141.092 18.7902V23.8694H147.187V27.1015H141.092V46.4946H136.936ZM156.116 46.9563C154.653 46.9563 153.491 46.6947 152.629 46.1714C151.783 45.6327 151.175 44.9477 150.805 44.1166C150.436 43.2855 150.251 42.4159 150.251 41.5078V11.8641H154.407V39.1067C154.407 40.3996 154.492 41.3693 154.661 42.0157C154.83 42.6621 155.169 43.0931 155.677 43.3086C156.2 43.5241 156.993 43.6318 158.055 43.6318L157.455 46.9563H156.116ZM170.511 46.9563C168.141 46.9563 166.116 46.433 164.439 45.3864C162.776 44.3244 161.499 42.9084 160.606 41.1384C159.729 39.353 159.29 37.3675 159.29 35.182C159.29 32.9964 159.729 31.0186 160.606 29.2486C161.499 27.4632 162.776 26.0472 164.439 25.0006C166.116 23.9386 168.141 23.4076 170.511 23.4076C172.866 23.4076 174.882 23.9386 176.56 25.0006C178.237 26.0472 179.515 27.4632 180.392 29.2486C181.285 31.0186 181.731 32.9964 181.731 35.182C181.731 37.3675 181.285 39.353 180.392 41.1384C179.515 42.9084 178.237 44.3244 176.56 45.3864C174.882 46.433 172.866 46.9563 170.511 46.9563ZM170.511 43.2624C172.759 43.2624 174.482 42.5544 175.683 41.1384C176.882 39.707 177.484 37.7215 177.484 35.182C177.484 32.6424 176.882 30.6646 175.683 29.2486C174.482 27.8172 172.759 27.1015 170.511 27.1015C168.279 27.1015 166.556 27.8172 165.339 29.2486C164.139 30.6646 163.538 32.6424 163.538 35.182C163.538 37.7215 164.139 39.707 165.339 41.1384C166.556 42.5544 168.279 43.2624 170.511 43.2624ZM189.961 46.4946L183.174 23.8694H188.069L192.409 41.9234L197.211 24.562H201.505L206.353 41.9234L210.695 23.8694H215.588L208.755 46.4946H204.091L199.382 29.7796L194.625 46.4946H189.961Z" fill="white"/>
<path d="M37.6992 46.9389L56.1716 30.8516L37.6992 14.7644H30.7773L49.25 30.8516L30.7773 46.9389H37.6992Z" fill="white"/>
<path d="M30.2811 46.9389L11.8086 30.8516L30.2811 14.7644H37.203L18.7304 30.8516L37.203 46.9389H30.2811Z" fill="white"/>
</svg>

<svg fill="none" height="59" width="232" xmlns="http://www.w3.org/2000/svg"><g fill="#fff"><path d="M65.5 46.5V14.2H76c2.2 0 4.1.3 5.8 1 1.6.7 2.9 1.8 3.8 3.4 1 1.5 1.4 3.5 1.4 6s-.5 4.5-1.4 6.1a8.1 8.1 0 0 1-3.8 3.4 15 15 0 0 1-5.8 1h-6v11.4zM70 31.3h5.4c2.3 0 4.1-.6 5.3-1.6 1.2-1.1 1.8-2.8 1.8-5s-.6-4-1.7-5-3-1.6-5.4-1.6H70zM98.5 47a9 9 0 0 1-4.5-1.1 7 7 0 0 1-2.9-3.3c-.6-1.4-1-3.3-1-5.6V24h4.2v12c0 2.4.4 4.2 1.2 5.5a4.7 4.7 0 0 0 4 1.9c1.4 0 2.5-.3 3.6-1a4.8 4.8 0 0 0 2.3-3l-.6 2.3V24h4.2v22.6h-3.7l-.9-4.4 1.1.7a8.2 8.2 0 0 1-2.7 3.1c-1.1.7-2.5 1-4.3 1zm21.6 0c-1.5 0-2.7-.3-3.5-.8-.9-.6-1.5-1.3-1.8-2s-.6-1.8-.6-2.7V12h4.2v27c0 1.3 0 2.3.2 3 .2.6.5 1 1 1.2.6.2 1.3.3 2.4.3l-.6 3.4zm10.5 0c-1.4 0-2.6-.3-3.5-.8a4.7 4.7 0 0 1-1.8-2c-.4-1-.5-1.8-.5-2.7V12h4.1v27c0 1.3.1 2.3.3 3s.5 1 1 1.2a7 7 0 0 0 2.4.3L132 47zm6.3-.5V27H133l.6-3.2h3.3v-5.4a7 7 0 0 1 1.7-4.8c1-1.2 2.6-1.8 4.7-1.8a11 11 0 0 1 3.6.6l-.6 3.5a6 6 0 0 0-2.3-.4c-1 0-1.6.2-2.1.7-.6.5-.8 1.3-.8 2.5v5h6V27h-6v19.4zm19.2.5c-1.4 0-2.6-.3-3.5-.8a4.7 4.7 0 0 1-1.8-2c-.4-1-.5-1.8-.5-2.7V12h4.1v27c0 1.3 0 2.3.3 3s.5 1 1 1.2a7 7 0 0 0 2.4.3l-.6 3.4zm14.4 0c-2.4 0-4.4-.6-6-1.6-1.7-1-3-2.5-3.9-4.3-.9-1.7-1.3-3.7-1.3-6 0-2.1.4-4 1.3-5.9a10.4 10.4 0 0 1 10-5.8c2.3 0 4.3.5 6 1.6 1.6 1 3 2.5 3.8 4.2a13 13 0 0 1 1.3 6c0 2.2-.4 4.2-1.3 6a10.4 10.4 0 0 1-9.9 5.8zm0-3.7c2.3 0 4-.7 5.2-2.2a9 9 0 0 0 1.8-6 9 9 0 0 0-1.8-5.9c-1.2-1.4-3-2.1-5.2-2.1s-4 .7-5.2 2.1a8.9 8.9 0 0 0-1.8 6 9 9 0 0 0 1.8 6c1.3 1.4 3 2 5.2 2zm19.5 3.2-6.8-22.6h4.9l4.3 18 4.8-17.3h4.3l4.9 17.3 4.3-18h4.9l-6.8 22.6H204l-4.7-16.7-4.8 16.7zM37.7 47l18.5-16.1-18.5-16.1h-7l18.5 16L30.9 47z"/><path d="M30.3 47 11.8 30.8l18.5-16.1h6.9l-18.5 16L37.2 47z"/></g></svg>
